images/checked_e770f7.svg

<svg fill="none" height="12" viewBox="0 0 12 12" width="12" xmlns="http://www.w3.org/2000/svg"><path d="m6 0c-3.30853 0-6 2.69147-6 6s2.69147 6 6 6 6-2.69147 6-6-2.69147-6-6-6z" fill="#45d763"/><path d="m9.04102 4.72852-3.25003 3.24993c-.09751.09751-.2255.14658-.35349.14658s-.25598-.04907-.35349-.14658l-1.62496-1.62496c-.19556-.19547-.19556-.51151 0-.70698.19546-.19555.51141-.19555.70697 0l1.27148 1.27149 2.89655-2.89645c.19546-.19556.51141-.19556.70697 0 .19546.19546.19546.51141 0 .70697z" fill="#fafafa"/></svg>

<svg width="12" height="12" viewBox="0 0 12 12" fill="none" xmlns="http://www.w3.org/2000/svg">
<path d="M6 0C2.69147 0 0 2.69147 0 6C0 9.30853 2.69147 12 6 12C9.30853 12 12 9.30853 12 6C12 2.69147 9.30853 0 6 0Z" fill="#45D763"/>
<path d="M9.04102 4.72852L5.79099 7.97845C5.69348 8.07596 5.56549 8.12503 5.4375 8.12503C5.30951 8.12503 5.18152 8.07596 5.08401 7.97845L3.45905 6.35349C3.26349 6.15802 3.26349 5.84198 3.45905 5.64651C3.65451 5.45096 3.97046 5.45096 4.16602 5.64651L5.4375 6.918L8.33405 4.02155C8.52951 3.82599 8.84546 3.82599 9.04102 4.02155C9.23648 4.21701 9.23648 4.53296 9.04102 4.72852V4.72852Z" fill="#FAFAFA"/>
</svg>
